img/icons/svg/color/rvn.svg

<svg xmlns="http://www.w3.org/2000/svg" width="32" height="32" viewBox="0 0 32 32">
  <g fill="none" fill-rule="evenodd">
    <circle cx="16" cy="16" r="16" fill="#384182"/>
    <path fill="#FFF" d="M9.5,27 L13.1180422,10.2111597 L15.1488143,22.8118162 L9.5,27 Z M13.1880689,10.1148796 L18.6851589,22.8238512 L15.2421832,22.7636761 L13.1880689,10.1148796 Z M13.2697666,10.0185996 L20.4708378,11.0415755 L18.8018699,22.8238512 L13.2697666,10.0185996 Z M18.9302521,22.643326 L20.5525355,11.1498906 L21.614606,12.4978118 L18.9302521,22.643326 Z M20.4474956,10.9332604 L13.421491,9.93435449 L19.7472293,7.85229759 L20.4474956,10.9332604 Z M13.3864776,9.82603939 L17.693115,6.84135667 L19.7472293,7.74398249 L13.3864776,9.82603939 Z M13.2814377,9.78993435 L14.1100861,8.20131291 L17.6230884,6.79321663 L13.2814377,9.78993435 Z M14.1100861,8.12910284 L14.5069036,6.88949672 L17.4013374,6.79321663 L14.1100861,8.12910284 Z M14.4835614,6.79321663 L15.4172497,5.79431072 L17.4246796,6.69693654 L14.4835614,6.79321663 Z M15.4756053,5.73413567 L16.8761377,5.04814004 L18.6851589,7.16630197 L15.4756053,5.73413567 Z M17.0745465,5.13238512 L19.1636741,6.04704595 L18.7901988,7.17833698 L17.0745465,5.13238512 Z M18.8602254,7.21444201 L19.2453719,6.05908096 L19.712216,7.64770241 L18.8602254,7.21444201 Z M16.9228222,5 L18.4517368,5 L19.2090227,5.8417474 C19.2214021,5.85550747 19.2247961,5.87514644 19.2177529,5.89226315 C19.2076359,5.91685004 19.1795028,5.92858018 19.1549159,5.91846316 L16.9228222,5 Z M19.3387407,5.96280088 L22.4488051,6.83137331 C22.4732411,6.83819775 22.4923029,6.85734566 22.4990172,6.88181217 C22.5095713,6.9202708 22.4869502,6.96000347 22.4484915,6.97055756 L19.8055849,7.69584245 L19.3387407,5.96280088 Z"/>
  </g>
</svg>

<svg xmlns="http://www.w3.org/2000/svg" width="32" height="32" viewBox="0 0 32 32"><g fill="none" fill-rule="evenodd"><circle cx="16" cy="16" r="16" fill="#384182"/><path fill="#FFF" d="M9.5 27l3.618-16.789 2.03 12.6L9.5 27zm3.688-16.885l5.497 12.709-3.443-.06-2.054-12.65zm.082-.096l7.2 1.023-1.668 11.782-5.532-12.805zm5.66 12.624l1.623-11.493 1.062 1.348-2.685 10.145zm1.517-11.71l-7.026-.999 6.326-2.082.7 3.081zm-7.06-1.107l4.306-2.985 2.054.903-6.36 2.082zm-.106-.036l.83-1.589 3.512-1.408-4.342 2.997zm.83-1.66l.396-1.24 2.894-.097-3.29 1.336zm.373-1.337l.933-.999 2.008.903-2.941.096zm.992-1.059l1.4-.686 1.81 2.118-3.21-1.432zm1.599-.602l2.089.915-.374 1.131-1.715-2.046zm1.785 2.082l.385-1.155.467 1.589-.852-.434zM16.923 5h1.529l.757.842a.048.048 0 0 1-.054.076L16.923 5zm2.416.963l3.11.868a.072.072 0 0 1 0 .14l-2.643.725-.467-1.733z"/></g></svg>
